X:95
T:Hercules. JJo8.095, The
%%VWML:JohnsonVol8-2184-p48-0
F:http://www.vwml.org/record/JohnsonVol8/2184/p48
Z:Transcribed by Simon Furey and Lewis Jones
Z:vmp.Simon Wilson 2013 www.village-music-project.org.uk
Z:Dance added by John Chambers 2017
M:6/8
L:1/8
%Q:3/8=120
K:D
|:\
d2A d2f | edc dAF | D2f edc | E2g fed |\
F2a g2f | efd cBA | Bba ^geg | a3 A3 :|
|:\
agf gbe | fad cde | fag fed | c2B AGF |\
G2B A2c | B2d c2e | dgf edc | d3 D3 :|
W: Cast off two Cu. .| Cross over two Cu. to
W:the Top :| Lead down one Cu. up again &
W:cast off :||. Right hands and Left :||:
W:
T:Lady Bampfylde's Reel. JJo8.096
B:J.Johnson Choice Collection Vol 8 1758
Z:vmp.Simon Wilson 2013 www.village-music-project.org.uk
Z:Dance added by John Chambers 2017
M:C|
L:1/8
%Q:1/2=80
K:G
|:\
G>BG>B de/f/ ge | dBgB AA/A/A2 |\
G>BG>B de/f/ ge | dBgB GG/G/G2 :|
|:\
dBgB dBgB | fg/a/ fd fg/a/ fd |\
Bgfa ga/b/ ge | dBgB GG/G/G2 :|
W: Foot it to your Partner and turn .|. then
W:foot it sideways and turn .||. Lead thro'
W:the 2d Cu. cast up :||. Right and Left at
W:top Turn Corners .|. then turn the other
W:Corners :||. Lead out Bottom & Top :||:
W:
